src/cmd/lc_entirecolumn.svg

<svg viewBox="0 0 24 24" xmlns="http://www.w3.org/2000/svg"><path d="m4 4v1 14 1h15 1v-16h-1zm1 1h2v3 1h-1.0996094-.9003906zm3 0h1 1 1 2 1 1 1v3 1h-1v1h1v4h-1v1h1v4h-1-1-1-2-1-1-1v-4h1v-1h-1v-4h1v-1h-1v-1zm9 0h2v4h-1-1v-1zm-12 5h2v4h-2zm12 0h1 1v4h-1-1zm-12 5h2v4h-2zm12 0h1 1v4h-2v-3z" fill="#232629"/><path d="m9 5v14h1v-.292969l4-4v4.292969h1v-5.292969-3.9999998-4-.7070312h-.707031-.292969v.2929688l-4 4v-4.2929688zm5 1.7070312v2.5859376l-4 4.0000002v-2.585938zm0 3.9999998v2.585938l-4 4v-2.585938z" fill="#762572"/></svg>

<?xml version="1.0" encoding="UTF-8" standalone="no"?>
<svg
   xmlns:dc="http://purl.org/dc/elements/1.1/"
   xmlns:cc="http://creativecommons.org/ns#"
   xmlns:rdf="http://www.w3.org/1999/02/22-rdf-syntax-ns#"
   xmlns:svg="http://www.w3.org/2000/svg"
   xmlns="http://www.w3.org/2000/svg"
   xmlns:sodipodi="http://sodipodi.sourceforge.net/DTD/sodipodi-0.dtd"
   xmlns:inkscape="http://www.inkscape.org/namespaces/inkscape"
   viewBox="0 0 24 24"
   version="1.1"
   id="svg6"
   sodipodi:docname="lc_entirecolumn.svg"
   inkscape:version="0.92.4 (5da689c313, 2019-01-14)">
  <metadata
     id="metadata12">
    <rdf:RDF>
      <cc:Work
         rdf:about="">
        <dc:format>image/svg+xml</dc:format>
        <dc:type
           rdf:resource="http://purl.org/dc/dcmitype/StillImage" />
      </cc:Work>
    </rdf:RDF>
  </metadata>
  <defs
     id="defs10" />
  <sodipodi:namedview
     pagecolor="#ffffff"
     bordercolor="#666666"
     borderopacity="1"
     objecttolerance="10"
     gridtolerance="10"
     guidetolerance="10"
     inkscape:pageopacity="0"
     inkscape:pageshadow="2"
     inkscape:window-width="1920"
     inkscape:window-height="1011"
     id="namedview8"
     showgrid="true"
     inkscape:zoom="19.666667"
     inkscape:cx="15.747568"
     inkscape:cy="7.3104644"
     inkscape:window-x="1920"
     inkscape:window-y="32"
     inkscape:window-maximized="1"
     inkscape:current-layer="svg6">
    <inkscape:grid
       type="xygrid"
       id="grid822" />
  </sodipodi:namedview>
  <path
     d="M 7,4 C 5,4 4,4 4,6 v 12 c 0,2 1,2 3,2 h 10 c 2,0 3,0 3,-2 V 6 C 20,4 19,4 17,4 Z M 5,6 C 5,5 6,5 7,5 V 8 9 H 5.9003906 5 Z M 8,5 h 1 1 1 2 1 1 1 v 3 1 h -1 v 1 h 1 v 4 h -1 v 1 h 1 v 4 H 15 14 13 11 10 9 8 V 15 H 9 V 14 H 8 V 10 H 9 V 9 H 8 V 8 Z m 9,0 c 1,0 2,0 2,1 V 9 H 18 17 V 8 Z M 5,10 h 2 v 4 H 5 Z m 12,0 h 1 1 v 4 H 18 17 Z M 5,15 h 2 v 4 C 6,19 5,19 5,18 Z m 12,0 h 1 1 v 3 c 0,1 -1,1 -2,1 v -3 z"
     id="path2"
     inkscape:connector-curvature="0"
     style="fill:#232629"
     sodipodi:nodetypes="cccccccccccccccccccccccccccccccccccccccccccccccccccccccccccccccccccccccccccccccccc" />
  <path
     d="m9 5v14h1v-.292969l4-4v4.292969h1v-5.292969-3.9999998-4-.7070312h-.707031-.292969v.2929688l-4 4v-4.2929688zm5 1.7070312v2.5859376l-4 4.0000002v-2.585938zm0 3.9999998v2.585938l-4 4v-2.585938z"
     fill="#762572"
     id="path4" />
</svg>
